X:1
T:Title
%%score 1 2
L:1/8
Q:1/4=95
M:4/4
K:Eb
V:1 treble nm="Grand Piano, Soprano"
V:2 bass nm="Choir Pad, Count It All Joy"
V:1
 [EG][GB] [GB]2 [GB]3 [GB] | [Ac][ce][Bd][Ac] [GB]2 [EG]2 | E[EF][EG][FA] [GB][Ac][GB][EG] | %3
w: By~William~Edie~Marks * * * *|||
 [EG]2 [DF]2 [DF]4 | [EG][GB] [GB]2 [GB]3 [GB] | [Ac][ce][Bd][Ac] [GB]2 [EG]2 | %6
w: |||
 [Ge][Ae][Be][Ac] [GB][FB][EB][EA] | [EG]2 [DF]2 E4 | [EG][GB] [GB]2 [GB]4 | [Ac][Ae] [Ae]2 [Ae]4 | %10
w: ||||
 [Ae][Ae][Ad][Ac] [GB][GB][_G=A][=GB] | [Fd]2 [Ec]2 [DB]4 | [EG][GB] [GB]2 [GB]3 [GB] | %13
w: |||
 [Ac][ce][Bd][Ac] [GB]2 [EG]2 | [Ge][Ae][Be][Ac] [GB][FB][EB][EA] | [EG]2 [DF]2 [B,E]4- | %16
w: |||
 [B,E]2 z2 z4 |] %17
w: |
V:2
 [E,B,][E,E] [E,E]2 [E,E]3 [E,E] | [A,E][A,E][A,E][A,E] [E,E]2 [E,B,]2 | %2
 [E,G,][E,A,][E,B,][E,B,] [E,E][E,E][E,E][E,B,] | [B,,B,]2 [B,,B,]2 [B,,B,]4 | %4
 [E,B,][E,E] [E,E]2 [E,E]3 [E,E] | [A,E][A,E][A,E][A,E] [E,E]2 [E,B,]2 | %6
 [E,B,][F,B,][G,E][A,E] [E,E][F,D][G,E][A,C] | B,2 [B,,A,]2 [E,G,]4 | [E,B,][E,E] [E,E]2 [E,E]4 | %9
 [A,E][A,C] [A,C]2 [A,C]4 | [A,C][A,C][A,C][A,E] [E,E][E,E][E,E][E,E] | [F,B,]2 [F,=A,]2 [B,,B,]4 | %12
 [E,B,][E,E] [E,E]2 [E,E]3 [E,E] | [A,E][A,E][A,E][A,E] [E,E]2 [E,B,]2 | %14
 [E,B,][F,B,][G,E][A,E] [E,E][F,D][G,E][A,C] | [B,,B,]2 [B,,A,]2 [E,G,]4- | [E,G,]2 z2 z4 |] %17

